packages/form-js-viewer/src/render/components/form-fields/icons/Expand.svg

<svg width="16" height="16" viewBox="0 0 16 16" fill="none" xmlns="http://www.w3.org/2000/svg">
  <path d="M2 9H7.5V12.086L6.207 10.793L5.5 11.5L8 14L10.5 11.5L9.793 10.793L8.5 12.086V9H14V8H2V9Z" fill="currentColor"/>
  <path d="M13 2H3C2.73478 2 2.48043 2.10536 2.29289 2.29289C2.10536 2.48043 2 2.73478 2 3V5C2 5.26522 2.10536 5.51957 2.29289 5.70711C2.48043 5.89464 2.73478 6 3 6H13C13.2652 6 13.5196 5.89464 13.7071 5.70711C13.8946 5.51957 14 5.26522 14 5V3C14 2.73478 13.8946 2.48043 13.7071 2.29289C13.5196 2.10536 13.2652 2 13 2ZM13 5H3V3H13V5Z" fill="currentColor"/>
</svg>

<svg xmlns="http://www.w3.org/2000/svg" width="16" height="16" fill="none"><path fill="currentColor" d="M2 9h5.5v3.086l-1.293-1.293-.707.707L8 14l2.5-2.5-.707-.707L8.5 12.086V9H14V8H2v1ZM13 2H3a1 1 0 0 0-1 1v2a1 1 0 0 0 1 1h10a1 1 0 0 0 1-1V3a1 1 0 0 0-1-1Zm0 3H3V3h10v2Z"/></svg>
